X: 20
T:The Frost is all Over
N: page 6
N: heptatonic
R:Jig
C:Trad.
M:6/8
L:1/8
K:D
A|"D"def "G"edB|"D"AFD "A"E2D|"D"FAA AFA|"G"Bee "A"edB|"D"def "G"edB|
"D"AFD "A"E2D|"D"FAA AFA|"G"Bdc "D"d2::g|"D"fef afd|"G"gfg "Em"bag|
"D"fef afd|"Em"gfg "A7"efg|"D"fef afd|"G"gfg "Em"bag|"D"fga "A7"efg|"D"fdc d2:|
